X:1
T:SOME PUMPKINS
T:SOME PUMPKINS
T:March and Two Step
T:Ed: KUHN
T:Copyright 1908 by W. B. Allen Music Co Columbia Mo.
T:Copyright 1908 by W. B. Allen Music Co Columbia Mo.
T:Copyright 1908 by W. B. Allen Music Co Columbia Mo.
T:Copyright 1908 by W. B. Allen Music Co Columbia Mo.
C:Ed: KUHN
Z:Copyright 1908 by W. B. Allen Music Co Columbia Mo.
%%score { ( 1 2 ) | 3 }
L:1/8
Q:1/4=90
M:2/4
K:C
V:1 treble nm="Piano" snm="Pno."
V:2 treble 
V:3 bass 
V:1
!f! (3g/a/b/ | c'/b/a/g/ a/b/a/g/ | a/b/a/g/ a z | [^Fce][Fce]- [Fce]/c/[Fcd] | %4
 !>![GBg] z !>![gbg'] z |:!mf!{gab} [ec']/b/a/g/ a/b/a/g/ | a/b/a/g/ [ea] z | %7
 [Gg]/c/e/[Aa]/- [Aa]/c/[_A_a] | [Geg]4 |{gab} [ec']/b/a/g/ a/b/a/g/ | a/b/a/g/ [ea] z | %11
 [dd']/^f/a/[ee']/- [ee'][_e_e'] | [dbd']2 [gbg']2 |{gab} [ec']/b/a/g/ a/b/a/g/ | a/b/a/g/ [ea] z | %15
 [Gg]/c/e/[Aa]/- [Aa]/c/[_A_a] | [Geg]4 | [cec'][Beb][_B_e_b][Ada] | [_A_d_a][Gcg] [^Fc^f]2 | %19
 [Gg][^G^g]/[Aa]/- [Aa]/[^A^a]/[Bb] | !>![cec'] z !>![cec'] z :: [cac']2 [dad']2- | %22
 [dad'][cc']/[dd']/- [dd']/[cc']/[dd'] | [Geg]2 [Aea]2- | [Aea][Gg]/[Aa]/- [Aa]/[Gg]/[Aa] | %25
 [Gfg]2 [Afa]2- | [Afa][Gg]/[Aa]/- [Aa]/[Gg]/[Aa] | [Geg]2 [Aea]2- | %28
 [Aea][Gg]/[Aa]/- [Aa]/[Gg]/[Aa]/[Bb]/ | [cac']2 [dad']2- | [dad'][cc']/[dd']/- [dd']/[cc']/[dd'] | %31
 [Geg]2 [Aea]2- | [Aea][Gg]/[Aa]/- [Aa]/[Gg]/[Aa] | [Gfg]2 [Afa]2- | [Afa] [Bfb]2 [Gfg] |1 %35
 [cec']4- | [cec']g/g/ [Gg][Gg] :|2 [cec']4- | [cec'] z [cec'] z ||{gab} [ec']/b/a/g/ a/b/a/g/ | %40
 a/b/a/g/ [ea] z | [Gg]/c/e/[Aa]/- [Aa]/c/[_A_a] | [Geg]4 |{gab} [ec']/b/a/g/ a/b/a/g/ | %44
 a/b/a/g/ [ea] z | [dd']/^f/a/[ee']/- [ee'][_e_e'] | [dbd']2 [gbg']2 |{gab} [ec']/b/a/g/ a/b/a/g/ | %48
 a/b/a/g/ [ea] z | [Gg]/c/e/[Aa]/- [Aa]/c/[_A_a] | [Geg]4 | [cec'][Beb][_B_e_b][Ada] | %52
 [_A_d_a][Gcg] [^Fc^f]2 | [Gg][^G^g]/[Aa]/- [Aa]/[^A^a]/[Bb] | [cec'] z !>![cec'] z |: %55
[K:F]!p! [Ac]2 [Ad]2- | [Ad]c/d/- d/c/d/e/ | [Bd]2 [Be]2- | [Be]d/e/- ed | [Bc] [Bd]2 [Be] | %60
 [Bf] [Bg]2 [B^g] | [Afa] [cac']2 [dad'] | [cc'][dd']/[cc']/- [cc']/[Bb]/[Gg]/e/ | [Ac]2 [Ad]2- | %64
 [Ad]c/d/- d/c/d/e/ | [Bg]2 [Bd]2- | [Bd][Bd][Be][Bf] | [=Bg] [Bd]2 [Be] | [=Bf] [Be]2 [Bd] | %69
 [_Bg] [Be]2 [Bd]- | [Bd][B_d] [Bc]2 | [Ac]2 [Ad]2- | [Ad]c/d/- d/c/d/e/ | [Bd]2 [Be]2- | %74
 [Be]d/e/- ed | [Bc] [Bd]2 [Be] | [Bf] [Bg]2 [B^g] | [^cea]4 | [cea]e/[ca]/- [ca]/e/[ca]/e/ | %79
 [=cfa]2 [cd]2- | [cd]^c/d/- d/c/d | [=B=fa]2 [Bfg]2- | [Bfg]d^cd | [cea] [Beg]2 [Bc] | %84
 [cea] [Beg]2 [Bc] |1 [Af]c=B_B | Ac=B_B :|2 [Af]c/=B/ cA | F z [FAf] z || %89
 [Bc][Bd]/g/ [Bc][Bd]/g/ | [GBc]c/=B/ c/B/c | [B,C][B,D]/G/ [B,C][B,D]/G/ | %92
 [B,C][Cc]/[Cc]/ [Cc][Cc] ||!f! [Ac]2 [Ad]2- | [Ad]c/d/- d/c/d/e/ | [Bd]2 [Be]2- | [Be]d/e/- ed | %97
 [Bc] [Bd]2 [Be] | [Bf] [Bg]2 [B^g] | [Afa] [cac']2 [dad'] | %100
 [cc'][dd']/[cc']/- [cc']/[Bb]/[Gg]/e/ | [Ac]2 [Ad]2- | [Ad]c/d/- d/c/d/e/ | [Bg]2 [Bd]2- | %104
 [Bd][Bd][Be][Bf] | [=Bg] [Bd]2 [Be] | [=Bf] [Be]2 [Bd] | [Bg] [Be]2 [Bd]- | [Bd][B_d] [Bc]2 | %109
 [Ac]2 [Ad]2- | [Ad]c/d/- d/c/d/e/ | [Bd]2 [Be]2- | [Be]d/e/- ed | [Bc] [Bd]2 [Be] | %114
 [Bf] [Bg]2 [B^g] | [^cea]4 | [cea]e/[ca]/- [ca]/e/[ca]/e/ | [=cfa]2 [cd]2- | [cd]^c/d/- d/c/d | %119
 [=B=fa]2 [Bfg]2- | [Bfg]d^cd | [cea] [Beg]2 [Bc] | [cea] [Beg]2 [Bc] | [Af]c=B_B | Ac=B_B | %125
 AC !>![FAf] z |] %126
V:2
 (3G/A/B/ | c/B/A/G/ A/B/A/G/ | A/B/A/G/ A x | x4 | x4 |: x4 | x4 | x4 | x4 | x4 | x4 | x4 | x4 | %13
 x4 | x4 | x4 | x4 | A^G=G^F | =FE ^D2 | x4 | x4 :: x4 | x4 | x4 | x4 | x4 | x4 | x4 | x4 | x4 | %30
 x4 | x4 | x4 | x4 | x4 |1 x4 | x4 :|2 x4 | x4 || x4 | x4 | x4 | x4 | x4 | x4 | x4 | x4 | x4 | x4 | %49
 x4 | x4 | A^G=G^F | =FE ^D2 | x4 | x4 |:[K:F] x4 | x4 | x4 | x4 | x4 | x4 | x4 | x4 | x4 | x4 | %65
 x4 | x4 | x4 | x4 | x4 | x4 | x4 | x4 | x4 | x4 | x4 | x4 | x4 | x4 | x4 | x4 | x4 | x4 | x4 | %84
 x4 |1 x4 | x4 :|2 x4 | x4 || [EG][FG] [EG][FG] | EC/=B,/ C/B,/C | x4 | x4 || x4 | x4 | x4 | x4 | %97
 x4 | x4 | x4 | x4 | x4 | x4 | x4 | x4 | x4 | x4 | x4 | x4 | x4 | x4 | x4 | x4 | x4 | x4 | x4 | %116
 x4 | x4 | x4 | x4 | x4 | x4 | x4 | x4 | x4 | x4 |] %126
V:3
 x | x4 | x4 | !>![A,,A,] !>![A,,A,]2 !>![A,,A,] | !>![G,,G,] z !>![G,,,G,,] z |: %5
 C,[G,CE] G,,[G,CE] | C,[G,CE] G,,[G,CE] | C,[G,CE] G,,[G,CE] | [C,C][B,,B,][A,,A,][G,,G,] | %9
 C,[G,CE] G,,[G,CE] | C,[G,CE] G,,[G,CE] | A,,[D,^F,C] D,,[D,F,C] | B,,[G,B,=F] G,,[G,B,F] | %13
 C,[G,CE] G,,[G,CE] | C,[G,CE] G,,[G,CE] | C,[G,CE] G,,[G,CE] | [C,C][B,,B,][A,,A,][G,,G,] | x4 | %18
 x4 | [E,,E,][G,CE] G,,[G,CE] | [C,,C,] z [C,,C,] z :: F,[A,CF] C,[A,CF] | F,[A,CF] C,[A,CF] | %23
 C,[G,CE] G,,[G,CE] | C,[G,CE] E,[G,CE] | D,[G,B,F] G,,[G,B,F] | D,[G,B,F] G,,[G,B,F] | %27
 C,[G,CE] G,,[G,CE] | C,[G,CE] G,,[G,CE] | F,[A,CF] C,[A,CF] | F,[A,CF] C,[A,CF] | %31
 C,[G,CE] G,,[G,CE] | C,[G,CE] E,[G,CE] | D,[G,B,F] G,,[G,B,F] | D,[G,B,F] G,,[G,B,F] |1 %35
 [C,C][A,,A,]/[G,,G,]/- [G,,G,]/[E,,E,]/[D,,D,] | [C,,C,] z z2 :|2 %37
 [C,C][A,,A,]/[G,,G,]/- [G,,G,]/[E,,E,]/[D,,D,] | [C,,C,] z [C,,C,] z || C,[G,CE] G,,[G,CE] | %40
 C,[G,CE] G,,[G,CE] | C,[G,CE] G,,[G,CE] | [C,C][B,,B,][A,,A,][G,,G,] | C,[G,CE] G,,[G,CE] | %44
 C,[G,CE] G,,[G,CE] | A,,[D,^F,C] D,,[D,F,C] | B,,[G,B,=F] G,,[G,B,F] | C,[G,CE] G,,[G,CE] | %48
 C,[G,CE] G,,[G,CE] | C,[G,CE] G,,[G,CE] | [C,C][B,,B,][A,,A,][G,,G,] | x4 | x4 | %53
 [E,,E,][G,CE] G,,[G,CE] | [C,,C,] z [C,,C,] z |:[K:F] F,[A,CF] C,[A,CF] | F,[A,CF] C,[A,CF] | %57
 G,[B,CE] C,[B,CE] | G,[B,CE] C,[B,CE] | G,[B,CE] C,[B,CE] | G,[B,CE] C,[B,CE] | %61
 F,[A,CF] C,[A,CF] | G,[B,CE] C,[B,CE] | F,[A,CF] C,[A,CF] | F,[A,CF] C,[A,CF] | %65
 G,[B,DG] F,[B,DG] | G,[B,DG] D,[B,DG] | D,[G,=B,F] G,,[G,B,F] | D,[G,=B,F] G,,[G,B,F] | %69
 G,[_B,CE] C,[B,CE] | G,[=B,CE] C,[B,CE] | F,[A,CF] C,[A,CF] | F,[A,CF] C,[A,CF] | %73
 G,[B,CE] C,[B,CE] | G,[B,CE] C,[B,CE] | G,[B,CE] C,[B,CE] | G,[B,CE] C,[B,CE] | %77
 [A,,A,][E,,E,][^D,,^D,][E,,E,] | [A,,A,][G,,G,][F,,F,][E,,E,] | A,,[D,^F,C] D,,[D,F,C] | %80
 A,,[D,^F,C] D,,[D,F,C] | D,[G,=B,F] G,,[G,B,F] | D,[G,=B,F] G,,[G,B,F] | G,[B,CE] C,[B,CE] | %84
 G,[B,CE] C,[B,CE] |1 [F,,F,][A,,A,][^G,,^G,][=G,,=G,] | [F,,F,][C,,C,][D,,D,][E,,E,] :|2 %87
 [F,,F,]C/=B,/ CA, | F, z [F,,F,] z || x4 | x4 | [E,G,][F,G,] [E,G,][F,G,] | %92
 [E,G,][B,,B,][A,,A,][G,,G,] || F,[A,CF] C,[A,CF] | F,[A,CF] C,[A,CF] | G,[B,CE] C,[B,CE] | %96
 G,[B,CE] C,[B,CE] | G,[B,CE] C,[B,CE] | G,[B,CE] C,[B,CE] | F,[A,CF] C,[A,CF] | %100
 G,[B,CE] C,[B,CE] | F,[A,CF] C,[A,CF] | F,[A,CF] C,[A,CF] | G,[B,DG] F,[B,DG] | %104
 G,[B,DG] D,[B,DG] | D,[G,=B,F] G,,[G,B,F] | D,[G,=B,F] G,,[G,B,F] | G,[_B,CE] C,[B,CE] | %108
 G,[=B,CE] C,[B,CE] | F,[A,CF] C,[A,CF] | F,[A,CF] C,[A,CF] | G,[B,CE] C,[B,CE] | %112
 G,[B,CE] C,[B,CE] | G,[B,CE] C,[B,CE] | G,[B,CE] C,[B,CE] | [A,,A,][E,,E,][^D,,^D,][E,,E,] | %116
 [A,,A,][G,,G,][F,,F,][E,,E,] | A,,[D,^F,C] D,,[D,F,C] | A,,[D,^F,C] D,,[D,F,C] | %119
 D,[G,=B,F] G,,[G,B,F] | D,[G,=B,F] G,,[G,B,F] | G,[B,CE] C,[B,CE] | G,[B,CE] C,[B,CE] | %123
 [F,,F,][A,,A,][^G,,^G,][=G,,=G,] | [F,,F,][C,,C,][D,,D,][E,,E,] | [F,,F,] z !>![F,,F,] z |] %126

